X:1
T:Shine
T:Shine
T:The Flat Foot Four
C:The Flat Foot Four
%%score [ 1 2 3 4 ]
L:1/8
M:4/4
K:Bb
V:1 treble-8 nm="Tenor"
V:2 treble-8 nm="Lead"
V:3 bass nm="Baritone"
V:4 bass nm="Bass"
V:1
 z2 | d8 | (d4 f4 | !fermata!b8) ||[M:2/4] d2 d2 | d/ d/ d d2 | d/ d/ d d d/ d/ | e4 | e2 e2 | %9
w: |shine,|shine! _|_|Shine, shine,|shine 'em up fine,|shine 'em up fine for a|dime!|Shine, shine,|
 e/ e/ e e2 | e/ e/ e e e/ e/ | !fermata!d4 | !fermata!d4 | !fermata!_d4 | =d4- | !fermata!d3 z | %16
w: shine 'em up fine,|shine 'em up fine for a|dime!|Dime!,|dime,|dime!|_|
 !fermata!z4 | !fermata!z4 | !fermata!z4 | z4 | f4- | f4- | f2 f2 | (f4 | =e4 | _e4) | d4- | %27
w: ||||Roll,|_|* you|'lev-|||en!|
 d2 z2 | z4 | !fermata!z4 | !fermata!z4 | z4 | f4- | f4- | f2 f2 | (f4 | =e4 | _e4) | d4- | d4 || %40
w: _|||||Roll,|_|* you|'lev-|||en!|_|
 d2 d2 | d d d2 | d d d d | e4 | e e e e | e e3 | e e e e | !fermata!d3 z ||[M:4/4] d2 d2 d2 d2 | %49
w: Roll, roll,|roll dem bones,|roll dem in de|square,|Roll dem on de|side- walk,|streets or an- y-|where!|roll dem in the|
 e2 e4 z2 | f2 f2 =e2 _e2 | (e4 !fermata!d2) z2 | z8 | e4 d4 | =e8- | !fermata!e2 z2 z4 | (f4 ^f4 | %57
w: morn- ing,|roll dem in de|night, _||whole day|long,|_|cops _|
 =f8) | (f4 =e4) | _e4 !fermata!^c4 | d8- | d8- | d8- | d8 |] %64
w: _|are _|out o'|sight!|_|||
V:2
 F2 | B8 | (B4 d4 | !fermata!f8) ||[M:2/4] F2 G2 | F/ F/ F G2 | F/ F/ F G G/ G/ | A4 | F2 G2 | %9
w: Oh,|shine,|shine! _|_|Shine, shine,|shine 'em up fine,|shine 'em up fine for a|dime!|Shine, shine,|
 F/ F/ F G2 | F/ F/ F G F/ F/ | !fermata!B4 | !fermata!B4 | !fermata!B4 | B4- | !fermata!B3 z | %16
w: shine 'em up fine,|shine 'em up fine for a|dime!|Dime!,|dime,|dime!|_|
 !fermata!z4 | z2 !fermata!z d | !fermata!d3 B | G F3 | d4- | d4- | d2 d2 | (d4 | c4- | c4) | B4- | %27
w: |Come|on, you|sev- en!|Roll,|_|* you|'lev-|||en!|
 B2 z2 | z4 | z2 !fermata!z d | !fermata!d3 B | G F3 | d4- | d4- | d2 d2 | (d4 | c4- | c4) | B4- | %39
w: _||Hop|up, you|'lev- en!|Roll,|_|* you|'lev-|||en!|
 B4 || F2 G2 | F F G2 | F F G G | A4 | F F G G | A A3 | F F G A | !fermata!B3 F || %48
w: _|Roll, roll,|roll dem bones,|roll dem in de|square,|Roll dem on de|side- walk,|streets or an- y-|where! We|
[M:4/4] B2 B2 G2 ^G2 | A2 A4 F2 | d2 d2 ^c2 =c2 | (G4 !fermata!F2) A B | c2 B2 G2 B2 | e4 d4 | %54
w: roll dem in the|morn- ing, We|roll dem in de|night, _ When we|roll dem bones de|whole day|
 c8- | !fermata!c2 z2 B2 c2 | (d4 c4 | d8) | (d4 ^c4) | =c4 !fermata!B4 | B8- | B8- | B8- | B8 |] %64
w: long,|_ When de|cops _|_|are _|out o'|sight!|_|||
V:3
 z2 | F,8 | (F,4 B,4 | !fermata!D8) ||[M:2/4] B,2 B,2 | B,/ B,/ B, B,2 | B,/ B,/ B, B, B,/ B,/ | %7
w: |shine,|shine! _|_|Shine, shine,|shine 'em up fine,|shine 'em up fine for a|
 F,4 | A,2 B,2 | A,/ A,/ A, B,2 | A,/ A,/ A, B, A,/ A,/ | !fermata!F,4 | !fermata!F,4 | %13
w: dime!|Shine, shine,|shine 'em up fine,|shine 'em up fine for a|dime!|Dime!,|
 !fermata!_G,4 | F,4 | F, !fermata!F,2 F, | !fermata!B, A, G, F, | G, D,/ D,/ !fermata!F, z | %18
w: dime,|dime!|Ten cents! My|ba- by needs a|new pair o' shoes.|
 !fermata!z4 | z4 | =B,4- | B,4- | B,2 _B,2 | (B,4- | B,4 | A,4) | F,4- | F,2 z F, | B, A, G, F, | %29
w: ||Roll,|_|* you|'lev-|||en!|_ An'|he won't get 'em|
 G, D, !fermata!F, z | !fermata!z4 | z4 | =B,4- | B,4- | B,2 _B,2 | (B,4- | B,4 | A,4) | F,4- | %39
w: if I lose!|||Roll,|_|* you|'lev-|||en!|
 F,4 || B,2 B,2 | B, B, B,2 | B, B, B, B, | C4 | A, A, B, B, | C C3 | A, A, B, C | %47
w: _|Roll, roll,|roll dem bones,|roll dem in de|square,|Roll dem on de|side- walk,|streets or an- y-|
 !fermata!F,3 z ||[M:4/4] F,2 F,2 F,2 F,2 | F,2 F,4 z2 | B,2 B,2 B,2 A,2 | (B,4 !fermata!F,2) z2 | %52
w: where!|roll dem in the|morn- ing,|roll dem in de|night, _|
 z8 | B,4 =B,4 | (G,4 _B,4- | !fermata!B,2) z2 z4 | (B,4 A,4 | =B,8) | _B,8 | A,4 !fermata!G,4 | %60
w: |whole day|long, _|_|cops _|_|are|out o'|
 F,8- | F,8- | F,8- | F,8 |] %64
w: sight!|_|||
V:4
 z2 | B,,8 | (B,,8 | !fermata!_A,8) ||[M:2/4] B,,2 B,,2 | B,,/ B,,/ B,, B,,2 | %6
w: |shine,|shine!|_|Shine, shine,|shine 'em up fine,|
 B,,/ B,,/ B,, B,, B,,/ B,,/ | C,4 | F,2 C,2 | F,/ F,/ F, C,2 | F,/ F,/ F, F, F,/ F,/ | %11
w: shine 'em up fine for a|dime!|Shine, shine,|shine 'em up fine,|shine 'em up fine for a|
 !fermata!B,,4 | !fermata!B,,4 | !fermata!_G,,4 | B,,4- | !fermata!B,,3 z | !fermata!z4 | %17
w: dime!|Dime!,|dime,|dime!|_||
 !fermata!z4 | !fermata!z4 | z4 | (G,2 ^G,2 | A,2 ^G,2 | =G,2) G,2 | (F,4 | G,4 | F,4) | B,,4- | %27
w: |||Roll, _|_ _|* you|'lev-|||en!|
 B,,2 z2 | z4 | !fermata!z4 | !fermata!z4 | z4 | (G,2 ^G,2 | A,2 ^G,2 | =G,2) G,2 | (F,4 | G,4 | %37
w: _|||||Roll, _|_ _|* you|'lev-||
 F,4) | B,,4- | B,,4 || B,,2 B,,2 | B,, B,, B,,2 | B,, B,, B,, B,, | F,4 | F, F, F, F, | F, F,3 | %46
w: |en!|_|Roll, roll,|roll dem bones,|roll dem in de|square,|Roll dem on de|side- walk,|
 F, F, F, F, | !fermata!B,,3 z ||[M:4/4] B,,2 B,,2 B,,2 =B,,2 | C,2 C,4 z2 | F,2 F,2 G,2 F,2 | %51
w: streets or an- y-|where!|roll dem in the|morn- ing,|roll dem in de|
 (E,4 !fermata!B,,2) z2 | z8 | E,4 G,4 | (C,4 G,4- | !fermata!G,2) z2 z4 | (B,,4 D,4 | G,8) | %58
w: night, _||whole day|long, _|_|cops _|_|
 (F,4 G,4) | F,4 !fermata!E,4 | B,2 B, B, G,2 F,2 | B,3 B, G, F, G, F, | B,2 G,2 F,2 D,2 | B,,8 |] %64
w: are _|out o'|Oh, Law- dy, how de|moon do shine down on dem|bones, bones, bones, bones,|bones!|

